packages/calcite-ui-icons/icons/select-nonspatial-data-32.svg

<?xml version="1.0" encoding="UTF-8"?><svg id="icons" xmlns="http://www.w3.org/2000/svg" viewBox="0 0 32 32"><defs><style>.cls-1{fill:none;}</style></defs><path d="M25.5,4c-1.75848,0-3.20422,1.30835-3.44946,3h-8.07587c-.25385-2.79858-2.61121-5-5.47467-5-3.03223,0-5.49,2.46777-5.49,5.5,0,2.86346,2.19142,5.22083,4.99,5.47467v6.05066c-2.79858.25385-4.99,2.61121-4.99,5.47467,0,3.03223,2.45777,5.5,5.49,5.5s5.5-2.46777,5.5-5.5c0-1.33655-.48035-2.56256-1.27625-3.51672l10.68994-10.68994c.58435.43774,1.30176.70667,2.0863.70667,1.92969,0,3.49-1.57031,3.49-3.5s-1.56031-3.5-3.49-3.5ZM10.5863,21.70667c-.45685-.34222-.99628-.57056-1.5863-.65613v-1c.86359.09717,1.64764.4328,2.29321.94922l-.70691.70691ZM9,19.02533v-6.05066c2.63367-.23889,4.73578-2.341,4.97467-4.97467h8.07587c.08557.59003.3139,1.12946.65613,1.5863l-10.68994,10.68994c-.83368-.69537-1.87543-1.1474-3.01672-1.25092ZM11.94946,8h1c-.2337,2.07751-1.87195,3.71576-3.94946,3.94946v-1c1.52692-.22137,2.72809-1.42255,2.94946-2.94946ZM4,7.5c0-2.48145,2.01855-4.5,4.5-4.5,2.31024,0,4.19702,1.75616,4.44946,4h-1c-.24524-1.69165-1.69098-3-3.44946-3-1.92969,0-3.5,1.57031-3.5,3.5,0,1.75848,1.30835,3.20422,3,3.44946v1c-2.24384-.25244-4-2.13922-4-4.44946ZM13,24.5c0,2.48145-2.01855,4.5-4.5,4.5s-4.5-2.01855-4.5-4.5c0-2.31024,1.75616-4.19702,4-4.44946v1c-1.69165.24524-3,1.69098-3,3.44946,0,1.92969,1.57031,3.5,3.5,3.5s3.49-1.57031,3.49-3.5c0-.78455-.25892-1.50195-.69667-2.0863l.70691-.70691c.61584.7699.99976,1.73279.99976,2.79321ZM25.5,10c-1.37891,0-2.5-1.12109-2.5-2.5s1.12109-2.5,2.5-2.5,2.5,1.12109,2.5,2.5-1.12109,2.5-2.5,2.5Z"/><rect class="cls-1" width="32" height="32"/></svg>

<svg xmlns="http://www.w3.org/2000/svg" viewBox="0 0 32 32"><path d="M25.5 4c-1.758 0-3.204 1.308-3.45 3h-8.075A5.506 5.506 0 0 0 8.5 2C5.468 2 3.01 4.468 3.01 7.5A5.498 5.498 0 0 0 8 12.975v6.05A5.498 5.498 0 0 0 3.01 24.5c0 3.032 2.458 5.5 5.49 5.5s5.5-2.468 5.5-5.5c0-1.337-.48-2.563-1.276-3.517l10.69-10.69A3.467 3.467 0 0 0 25.5 11c1.93 0 3.49-1.57 3.49-3.5S27.43 4 25.5 4zM10.586 21.707A3.464 3.464 0 0 0 9 21.05v-1a4.45 4.45 0 0 1 2.293.949l-.707.707zM9 19.025v-6.05A5.506 5.506 0 0 0 13.975 8h8.076c.085.59.313 1.13.656 1.586l-10.69 10.69A5.473 5.473 0 0 0 9 19.026zM11.95 8h1A4.477 4.477 0 0 1 9 11.95v-1A3.487 3.487 0 0 0 11.95 8zM4 7.5C4 5.019 6.019 3 8.5 3c2.31 0 4.197 1.756 4.45 4h-1c-.246-1.692-1.692-3-3.45-3C6.57 4 5 5.57 5 7.5c0 1.758 1.308 3.204 3 3.45v1c-2.244-.253-4-2.14-4-4.45zm9 17c0 2.481-2.019 4.5-4.5 4.5S4 26.981 4 24.5c0-2.31 1.756-4.197 4-4.45v1c-1.692.246-3 1.692-3 3.45C5 26.43 6.57 28 8.5 28a3.496 3.496 0 0 0 2.793-5.586l.707-.707c.616.77 1 1.733 1 2.793zM25.5 10C24.121 10 23 8.879 23 7.5S24.121 5 25.5 5 28 6.121 28 7.5 26.879 10 25.5 10z"/><path fill="none" d="M0 0h32v32H0z"/></svg>
